Papirus/24x24/mimetypes/application-x-sms-rom.svg

<svg width="24" height="24" version="1.1" xmlns="http://www.w3.org/2000/svg">
 <path d="m5 2.5c-0.554 0-1 0.446-1 1v18c0 0.554 0.446 1 1 1h14c0.554 0 1-0.446 1-1v-13l-6-6z" style="opacity:.2"/>
 <path d="m5 2c-0.554 0-1 0.446-1 1v18c0 0.554 0.446 1 1 1h14c0.554 0 1-0.446 1-1v-13l-5-1-1-5z" style="fill:#4f4f4f"/>
 <path d="m20 8.5-6-6v5c0 0.554 0.446 1 1 1z" style="opacity:.2"/>
 <path d="m20 8-6-6v5c0 0.554 0.446 1 1 1z" style="fill:#696969"/>
 <path d="m5 2c-0.554 0-1 0.446-1 1v0.5c0-0.554 0.446-1 1-1h9v-0.5h-9z" style="fill:#ffffff;opacity:.1"/>
 <g>
  <path d="m11.498047 9.5000005c-1.915227 0-3.498047 1.5925915-3.498047 3.5078145 0 1.91523 1.58282 3.498047 3.498047 3.498047h1.003907c0.293896 0 0.501951 0.200239 0.501951 0.494139 0 0.293896-0.208063 0.501959-0.501951 0.501955h-4.501954v1.248045h4.501954c0.969456 5e-6 1.749997-0.780541 1.749997-1.75 4e-6 -0.969457-0.780541-1.748047-1.749997-1.748047h-1.003907c-1.239678 0-2.24414-1.004462-2.24414-2.24414 0-1.239677 1.004462-2.251948 2.24414-2.251952h4.503905v-1.2558615zm0 1.7500015c-0.969456 4e-6 -1.750001 0.788353-1.750001 1.757813 0 0.969457 0.780545 1.75 1.750001 1.75h1.003907c1.239674 0 2.251952 1.002508 2.251952 2.242186s-1.012274 2.251956-2.251952 2.251952h-4.501954v1.255862h4.501954c1.915227 7e-6 3.499998-1.592587 3.499998-3.507814s-1.584775-3.498047-3.499998-3.498047h-1.003907c-0.293896 0-0.494143-0.200239-0.494143-0.494139 0-0.293896 0.200239-0.501951 0.494143-0.501951h4.503905v-1.255862z" style="opacity:.2"/>
  <path d="m11.496095 9c-1.9152265 0-3.4980465 1.592591-3.4980465 3.507814 0 1.915231 1.58282 3.498048 3.4980465 3.498048h1.003907c0.293896 0 0.501951 0.200239 0.501951 0.494139 0 0.293896-0.208063 0.501959-0.501951 0.501955h-4.5019535v1.248046h4.5019535c0.969456 4e-6 1.749997-0.780541 1.749997-1.750001 4e-6 -0.969456-0.780541-1.748047-1.749997-1.748047h-1.003907c-1.239678 0-2.2441395-1.004462-2.2441395-2.24414 0-1.239677 1.0044615-2.251948 2.2441395-2.251952h4.503905v-1.255862zm0 1.750001c-0.969456 4e-6 -1.7500005 0.788353-1.7500005 1.757813 0 0.969457 0.7805445 1.750001 1.7500005 1.750001h1.003907c1.239674 0 2.251952 1.002508 2.251952 2.242186s-1.012274 2.251956-2.251952 2.251952h-4.5019535v1.255862h4.5019535c1.915227 7e-6 3.499998-1.592587 3.499998-3.507814s-1.584775-3.498048-3.499998-3.498048h-1.003907c-0.293896 0-0.494143-0.200239-0.494143-0.494139 0-0.293896 0.200239-0.501951 0.494143-0.501951h4.503905v-1.255862z" style="fill:#eb675e"/>
 </g>
</svg>

<svg xmlns="http://www.w3.org/2000/svg" width="24" height="24" version="1.1">
 <path style="opacity:0.2" d="m5 2.5c-0.554 0-1 0.446-1 1v18c0 0.554 0.446 1 1 1h14c0.554 0 1-0.446 1-1v-13l-6-6z"/>
 <path style="fill:#4f4f4f" d="m5 2c-0.554 0-1 0.446-1 1v18c0 0.554 0.446 1 1 1h14c0.554 0 1-0.446 1-1v-13l-5-1-1-5z"/>
 <path style="opacity:0.2" d="m20 8.5-6-6v5c0 0.554 0.446 1 1 1z"/>
 <path style="fill:#696969" d="m20 8-6-6v5c0 0.554 0.446 1 1 1z"/>
 <path style="fill:#ffffff;opacity:0.1" d="m5 2c-0.554 0-1 0.446-1 1v0.5c0-0.554 0.446-1 1-1h9v-0.5h-9z"/>
 <path style="opacity:0.1" d="M 11.5,9.5 C 9.6,9.5 8,11.1 8,13 8,14.9 9.6,16.5 11.5,16.5 H 12.5 C 12.8,16.5 13,16.7 13,17 13,17.3 12.8,17.5 12.5,17.5 H 8 V 18.8 H 12.5 C 13.5,18.8 14.3,18 14.3,17 14.3,16 13.5,15.3 12.5,15.3 H 11.5 C 10.3,15.3 9.3,14.2 9.3,13 9.3,11.8 10.3,10.8 11.5,10.8 H 16 V 9.5 Z M 11.5,11.2 C 10.5,11.2 9.7,12 9.7,13 9.7,14 10.5,14.8 11.5,14.8 H 12.5 C 13.7,14.8 14.8,15.8 14.8,17 14.8,18.2 13.7,19.3 12.5,19.3 H 8 V 20.5 H 12.5 C 14.4,20.5 16,18.9 16,17 16,15.1 14.4,13.5 12.5,13.5 H 11.5 C 11.2,13.5 11,13.3 11,13 11,12.7 11.2,12.5 11.5,12.5 H 16 V 11.2 Z"/>
 <path style="fill:#eb675e" d="M 11.5,9 C 9.6,9 8,10.6 8,12.5 8,14.4 9.6,16 11.5,16 H 12.5 C 12.8,16 13,16.2 13,16.5 13,16.8 12.8,17 12.5,17 H 8 V 18.2 H 12.5 C 13.5,18.2 14.2,17.5 14.2,16.5 14.2,15.5 13.5,14.8 12.5,14.8 H 11.5 C 10.3,14.8 9.2,13.8 9.2,12.5 9.2,11.3 10.3,10.3 11.5,10.3 H 16 V 9 Z M 11.5,10.8 C 10.5,10.8 9.8,11.5 9.8,12.5 9.8,13.5 10.5,14.3 11.5,14.3 H 12.5 C 13.7,14.3 14.8,15.3 14.8,16.5 14.8,17.7 13.7,18.8 12.5,18.8 H 8 V 20 H 12.5 C 14.4,20 16,18.4 16,16.5 16,14.6 14.4,13 12.5,13 H 11.5 C 11.2,13 11,12.8 11,12.5 11,12.2 11.2,12 11.5,12 H 16 V 10.8 Z"/>
</svg>
